packages/assets/static/images/icons/moped.svg

<svg width="24" height="24" viewBox="0 0 24 24" xmlns="http://www.w3.org/2000/svg">
<g clip-path="url(#clip0_2076_2404)">
<path d="M20.2507 12.748C20.0539 12.7479 19.8573 12.7636 19.6629 12.7949L16.4529 4.23461C16.3993 4.09168 16.3033 3.96852 16.1779 3.88158C16.0524 3.79464 15.9034 3.74805 15.7507 3.74805H12.7507C12.5518 3.74805 12.3611 3.82706 12.2204 3.96772C12.0798 4.10837 12.0007 4.29913 12.0007 4.49805C12.0007 4.69696 12.0798 4.88772 12.2204 5.02838C12.3611 5.16903 12.5518 5.24805 12.7507 5.24805H15.2314L18.2595 13.3227C17.8291 13.5922 17.4577 13.946 17.1677 14.3628C16.8777 14.7796 16.675 15.2508 16.572 15.748H12.8014L10.4576 9.48461C10.4037 9.34093 10.307 9.21725 10.1806 9.13024C10.0542 9.04323 9.90418 8.99709 9.75073 8.99805H2.25073C2.05182 8.99805 1.86105 9.07706 1.7204 9.21772C1.57975 9.35837 1.50073 9.54913 1.50073 9.74805C1.50073 9.94696 1.57975 10.1377 1.7204 10.2784C1.86105 10.419 2.05182 10.498 2.25073 10.498H3.00073V11.7534C2.10375 12.1803 1.34597 12.8525 0.815071 13.6922C0.284169 14.5318 0.00183518 15.5046 0.000732422 16.498C0.000732422 16.697 0.0797501 16.8877 0.220402 17.0284C0.361055 17.169 0.55182 17.248 0.750732 17.248H1.57573C1.74787 18.0958 2.20778 18.8579 2.87754 19.4053C3.5473 19.9528 4.38572 20.2518 5.25073 20.2518C6.11575 20.2518 6.95417 19.9528 7.62393 19.4053C8.29369 18.8579 8.7536 18.0958 8.92573 17.248H16.5757C16.7176 17.9432 17.0539 18.5839 17.5453 19.0956C18.0368 19.6074 18.6634 19.9692 19.3523 20.139C20.0412 20.3089 20.7641 20.2798 21.4371 20.0552C22.1102 19.8305 22.7057 19.4196 23.1545 18.8701C23.6033 18.3205 23.8869 17.6549 23.9726 16.9506C24.0582 16.2462 23.9422 15.5321 23.6382 14.891C23.3341 14.2499 22.8544 13.7083 22.2548 13.3289C21.6552 12.9496 20.9603 12.7482 20.2507 12.748ZM4.00105 12.9609C4.14718 12.9091 4.27368 12.8134 4.36317 12.6868C4.45265 12.5602 4.50071 12.409 4.50073 12.254V10.498H9.23136L11.2001 15.748H1.57667C1.70644 15.114 1.99783 14.5242 2.42259 14.0359C2.84735 13.5475 3.39107 13.1772 4.00105 12.9609ZM5.25073 18.748C4.78556 18.7479 4.33187 18.6036 3.95211 18.335C3.57234 18.0663 3.28516 17.6866 3.13011 17.248H7.37136C7.2163 17.6866 6.92913 18.0663 6.54936 18.335C6.16959 18.6036 5.7159 18.7479 5.25073 18.748ZM20.2507 18.748C19.7895 18.7475 19.3396 18.6053 18.9619 18.3406C18.5842 18.0759 18.297 17.7015 18.1391 17.2681C17.9813 16.8348 17.9604 16.3634 18.0794 15.9177C18.1983 15.4721 18.4513 15.0738 18.8042 14.7768L19.5485 16.7615C19.5831 16.8538 19.6356 16.9384 19.7029 17.0105C19.7702 17.0826 19.851 17.1407 19.9408 17.1815C20.0305 17.2223 20.1274 17.2451 20.226 17.2485C20.3245 17.2518 20.4228 17.2358 20.5151 17.2012C20.6074 17.1666 20.6921 17.1141 20.7641 17.0468C20.8362 16.9795 20.8943 16.8987 20.9351 16.809C20.976 16.7192 20.9987 16.6223 21.0021 16.5237C21.0055 16.4252 20.9894 16.3269 20.9548 16.2346L20.2085 14.248H20.2507C20.8475 14.248 21.4198 14.4851 21.8417 14.9071C22.2637 15.329 22.5007 15.9013 22.5007 16.498C22.5007 17.0948 22.2637 17.6671 21.8417 18.089C21.4198 18.511 20.8475 18.748 20.2507 18.748Z"/>
</g>
<defs>
<clipPath id="clip0_2076_2404">
<rect width="24" height="24"/>
</clipPath>
</defs>
</svg>

<svg viewBox="0 0 24 24" xmlns="http://www.w3.org/2000/svg" aria-hidden="true" fill="currentColor"><g clip-path="url(#a)"><path d="M20.25 12.748q-.295 0-.587.047l-3.21-8.56a.75.75 0 0 0-.702-.487h-3a.75.75 0 0 0 0 1.5h2.48l3.028 8.075a3.76 3.76 0 0 0-1.687 2.425h-3.77l-2.344-6.263a.75.75 0 0 0-.707-.487h-7.5a.75.75 0 1 0 0 1.5H3v1.255a5.26 5.26 0 0 0-3 4.745.75.75 0 0 0 .75.75h.825a3.75 3.75 0 0 0 7.35 0h7.65a3.75 3.75 0 1 0 3.675-4.5m-16.249.213a.75.75 0 0 0 .5-.707v-1.756h4.73l1.97 5.25H1.576A3.76 3.76 0 0 1 4 12.961m1.25 5.787a2.25 2.25 0 0 1-2.12-1.5h4.24a2.25 2.25 0 0 1-2.12 1.5m15 0a2.25 2.25 0 0 1-1.447-3.971l.745 1.985a.752.752 0 0 0 1.406-.527l-.746-1.987h.042a2.25 2.25 0 1 1 0 4.5"/></g><defs><clipPath id="a"><path d="M0 0h24v24H0z"/></clipPath></defs></svg>
